Sweet-Rainbow/icons/avidemux.svg

<?xml version="1.0" encoding="UTF-8" standalone="no"?>
<!-- Generator: Gravit.io -->

<svg
   xmlns:dc="http://purl.org/dc/elements/1.1/"
   xmlns:cc="http://creativecommons.org/ns#"
   xmlns:rdf="http://www.w3.org/1999/02/22-rdf-syntax-ns#"
   xmlns:svg="http://www.w3.org/2000/svg"
   xmlns="http://www.w3.org/2000/svg"
   xmlns:sodipodi="http://sodipodi.sourceforge.net/DTD/sodipodi-0.dtd"
   xmlns:inkscape="http://www.inkscape.org/namespaces/inkscape"
   style="isolation:isolate"
   viewBox="0 0 36 36"
   width="48"
   height="48"
   version="1.1"
   id="svg9"
   sodipodi:docname="avidemux.svg"
   inkscape:version="0.92.4 (5da689c313, 2019-01-14)">
  <metadata
     id="metadata15">
    <rdf:RDF>
      <cc:Work
         rdf:about="">
        <dc:format>image/svg+xml</dc:format>
        <dc:type
           rdf:resource="http://purl.org/dc/dcmitype/StillImage" />
        <dc:title></dc:title>
      </cc:Work>
    </rdf:RDF>
  </metadata>
  <defs
     id="defs13" />
  <sodipodi:namedview
     pagecolor="#ffffff"
     bordercolor="#666666"
     borderopacity="1"
     objecttolerance="10"
     gridtolerance="10"
     guidetolerance="10"
     inkscape:pageopacity="0"
     inkscape:pageshadow="2"
     inkscape:window-width="640"
     inkscape:window-height="480"
     id="namedview11"
     showgrid="false"
     inkscape:zoom="29.365243"
     inkscape:cx="25.325443"
     inkscape:cy="32"
     inkscape:current-layer="svg9"
     units="px" />
  <linearGradient
     id="_lgradient_66"
     x1="0.22078557"
     y1="0.047239967"
     x2="0.9022491"
     y2="0.90614605"
     gradientTransform="matrix(46.5,0,0,43,0.75,1.5)"
     gradientUnits="userSpaceOnUse">
    <stop
       offset="2.608695652173913%"
       stop-opacity="1"
       style="stop-color:rgb(237,184,212)"
       id="stop2" />
    <stop
       offset="98.69565217391305%"
       stop-opacity="1"
       style="stop-color:rgb(162,110,245)"
       id="stop4" />
  </linearGradient>
  <g
     id="g826"
     transform="matrix(0.77419355,0,0,0.77419355,-0.5806452,0.19354835)">
    <path
       id="path7"
       d="M 43.293,11 V 9.634 c 0,-2.563 -2.082,-4.645 -4.645,-4.645 H 35.406 L 38.41,8 35.416,11 Z M 4.707,11 V 9.634 c 0,-2.563 2.082,-4.645 4.645,-4.645 H 11.57 L 14.59,8 11.581,11 Z M 14.416,11 17.41,8 14.406,4.989 H 22.57 L 25.59,8 22.581,11 Z m 11,0 L 28.41,8 25.406,4.989 H 32.57 L 35.59,8 32.581,11 Z m 17.877,3 v 22.366 c 0,2.563 -2.082,4.645 -4.645,4.645 h -6.911 c -0.525,0 -1.029,0.183 -1.405,0.514 -0.366,0.323 -0.574,0.768 -0.574,1.23 0,0.463 0.208,0.908 0.574,1.23 0.376,0.332 0.88,0.515 1.405,0.515 h 9.01 c 3.589,0 6.503,-2.914 6.503,-6.503 V 8.003 C 47.25,4.414 44.336,1.5 40.747,1.5 H 7.253 C 3.664,1.5 0.75,4.414 0.75,8.003 v 29.994 c 0,3.589 2.914,6.503 6.503,6.503 h 9.01 c 0.525,0 1.029,-0.183 1.405,-0.515 0.366,-0.322 0.574,-0.767 0.574,-1.23 0,-0.462 -0.208,-0.907 -0.574,-1.23 -0.376,-0.331 -0.88,-0.514 -1.405,-0.514 H 9.352 c -2.563,0 -4.645,-2.082 -4.645,-4.645 V 14 Z m -12.54,12.774 v 0.453 l 0.375,0.374 3.858,3.858 v 0 -8.918 l -3.858,3.858 z m 0,-3.651 V 20.939 C 30.753,19.869 29.884,19 28.814,19 H 11.722 v 0 c -0.714,0 -1.293,0.579 -1.293,1.292 v 0 c 0,0.714 0.579,1.293 1.293,1.293 v 0 h 15.8 c 0.357,0 0.646,0.289 0.646,0.646 v 9.539 c 0,0.356 -0.289,0.646 -0.646,0.646 H 13.66 c -0.356,0 -0.646,-0.29 -0.646,-0.646 v -6.935 0 c 0,-0.713 -0.579,-1.292 -1.292,-1.292 v 0 c -0.714,0 -1.293,0.579 -1.293,1.292 v 0 8.227 c 0,1.07 0.869,1.939 1.939,1.939 h 16.446 c 1.07,0 1.939,-0.869 1.939,-1.939 v -2.184 0 l 3.02,3.02 c 0.252,0.252 0.746,0.456 1.103,0.456 h 2.049 c 0.356,0 0.646,-0.289 0.646,-0.646 V 20.292 c 0,-0.356 -0.29,-0.646 -0.646,-0.646 h -2.049 c -0.357,0 -0.851,0.205 -1.103,0.457 z"
       style="fill:url(#_lgradient_66);fill-rule:evenodd"
       inkscape:connector-curvature="0" />
  </g>
</svg>

<?xml version="1.0" encoding="UTF-8" standalone="no"?><!-- Generator: Gravit.io --><svg xmlns="http://www.w3.org/2000/svg" xmlns:xlink="http://www.w3.org/1999/xlink" style="isolation:isolate" viewBox="0 0 48 48" width="48pt" height="48pt"><linearGradient id="_lgradient_66" x1="0.22078557924020603" y1="0.04723996636961164" x2="0.9022490870014594" y2="0.9061460265379022" gradientTransform="matrix(46.5,0,0,43,0.75,1.5)" gradientUnits="userSpaceOnUse"><stop offset="2.608695652173913%" stop-opacity="1" style="stop-color:rgb(237,184,212)"/><stop offset="98.69565217391305%" stop-opacity="1" style="stop-color:rgb(162,110,245)"/></linearGradient><path d=" M 43.293 11 L 43.293 9.634 C 43.293 7.071 41.211 4.989 38.648 4.989 L 35.406 4.989 L 38.41 8 L 35.416 11 L 43.293 11 L 43.293 11 Z  M 4.707 11 L 4.707 9.634 C 4.707 7.071 6.789 4.989 9.352 4.989 L 11.57 4.989 L 14.59 8 L 11.581 11 L 4.707 11 L 4.707 11 Z  M 14.416 11 L 17.41 8 L 14.406 4.989 L 22.57 4.989 L 25.59 8 L 22.581 11 L 14.416 11 L 14.416 11 Z  M 25.416 11 L 28.41 8 L 25.406 4.989 L 32.57 4.989 L 35.59 8 L 32.581 11 L 25.416 11 L 25.416 11 Z  M 43.293 14 L 43.293 36.366 C 43.293 38.929 41.211 41.011 38.648 41.011 L 31.737 41.011 C 31.212 41.011 30.708 41.194 30.332 41.525 C 29.966 41.848 29.758 42.293 29.758 42.755 C 29.758 43.218 29.966 43.663 30.332 43.985 C 30.708 44.317 31.212 44.5 31.737 44.5 L 40.747 44.5 C 44.336 44.5 47.25 41.586 47.25 37.997 L 47.25 8.003 C 47.25 4.414 44.336 1.5 40.747 1.5 L 7.253 1.5 C 3.664 1.5 0.75 4.414 0.75 8.003 L 0.75 37.997 C 0.75 41.586 3.664 44.5 7.253 44.5 L 16.263 44.5 C 16.788 44.5 17.292 44.317 17.668 43.985 C 18.034 43.663 18.242 43.218 18.242 42.755 C 18.242 42.293 18.034 41.848 17.668 41.525 C 17.292 41.194 16.788 41.011 16.263 41.011 L 9.352 41.011 C 6.789 41.011 4.707 38.929 4.707 36.366 L 4.707 14 L 43.293 14 L 43.293 14 Z  M 30.753 26.774 L 30.753 27.227 L 31.128 27.601 L 34.986 31.459 L 34.986 31.459 L 34.986 22.541 L 31.128 26.399 L 30.753 26.774 L 30.753 26.774 Z  M 30.753 23.123 L 30.753 20.939 C 30.753 19.869 29.884 19 28.814 19 L 11.722 19 L 11.722 19 C 11.008 19 10.429 19.579 10.429 20.292 L 10.429 20.292 C 10.429 21.006 11.008 21.585 11.722 21.585 L 11.722 21.585 L 27.522 21.585 C 27.879 21.585 28.168 21.874 28.168 22.231 L 28.168 31.77 C 28.168 32.126 27.879 32.416 27.522 32.416 L 13.66 32.416 C 13.304 32.416 13.014 32.126 13.014 31.77 L 13.014 24.835 L 13.014 24.835 C 13.014 24.122 12.435 23.543 11.722 23.543 L 11.722 23.543 C 11.008 23.543 10.429 24.122 10.429 24.835 L 10.429 24.835 L 10.429 33.062 C 10.429 34.132 11.298 35.001 12.368 35.001 L 28.814 35.001 C 29.884 35.001 30.753 34.132 30.753 33.062 L 30.753 30.878 L 30.753 30.878 L 33.773 33.898 C 34.025 34.15 34.519 34.354 34.876 34.354 L 36.925 34.354 C 37.281 34.354 37.571 34.065 37.571 33.708 L 37.571 20.292 C 37.571 19.936 37.281 19.646 36.925 19.646 L 34.876 19.646 C 34.519 19.646 34.025 19.851 33.773 20.103 L 30.753 23.123 L 30.753 23.123 Z " fill-rule="evenodd" fill="url(#_lgradient_66)"/></svg>
